src/assets/img/icons/mask/icon-areas-things.svg

<svg width="64" height="64" viewBox="0 0 64 64" fill="none" xmlns="http://www.w3.org/2000/svg">
<path d="M15.4839 42.3226H14.4516V40.2581H12.3871V42.3226H9.29032V56.7742H12.3871V58.8387H14.4516V56.7742H15.4839C17.7611 56.7742 19.6129 54.9224 19.6129 52.6452C19.6129 51.4138 19.0711 50.3049 18.2122 49.5484C19.0711 48.7918 19.6129 47.683 19.6129 46.4516C19.6129 44.1744 17.7611 42.3226 15.4839 42.3226ZM15.4839 54.7097H11.3548V50.5806H15.4839C16.6225 50.5806 17.5484 51.5065 17.5484 52.6452C17.5484 53.7838 16.6225 54.7097 15.4839 54.7097ZM15.4839 48.5161H11.3548V44.3871H15.4839C16.6225 44.3871 17.5484 45.313 17.5484 46.4516C17.5484 47.5902 16.6225 48.5161 15.4839 48.5161ZM5.05192 57.5998C3.1245 55.3548 2.06452 52.4945 2.06452 49.5484C2.06452 44.9466 4.59274 40.7505 8.62349 38.6149L9.63105 38.1336C11.1568 37.4884 12.7782 37.1613 14.4516 37.1613C17.3977 37.1613 20.2581 38.2213 22.503 40.1487L23.8483 38.5817C23.4839 38.2692 23.1008 37.9849 22.7097 37.7137V28.9032H14.4516V35.1255C12.5318 35.1184 10.6003 35.4819 8.78427 36.251L7.69657 36.7702C2.94808 39.2848 0 44.1804 0 49.5484C0 52.9879 1.2379 56.3241 3.48488 58.9451L5.05192 57.5998ZM20.6452 30.9677V36.5192C19.3362 35.9027 17.9435 35.4859 16.5161 35.2782V30.9677H20.6452ZM55.7419 52.6452H53.6774V18.5806H45.4194V52.6452H43.3548V22.7097H35.0968V52.6452H33.0323V12.3871H24.7742V37.1613H26.8387V14.4516H30.9677V52.6452H28.5605C28.7792 51.6462 28.9032 50.6114 28.9032 49.5484C28.9032 46.1089 27.6653 42.7727 25.4183 40.1517L23.8513 41.497C25.7787 43.7419 26.8387 46.6023 26.8387 49.5484C26.8387 56.379 21.2823 61.9355 14.4516 61.9355C11.5055 61.9355 8.64516 60.8755 6.4002 58.9481L5.05494 60.5151C7.67591 62.7621 11.0121 64 14.4516 64C20.6008 64 25.8498 60.1331 27.934 54.7097H64V11.3548H55.7419V52.6452ZM47.4839 20.6452H51.6129V52.6452H47.4839V20.6452ZM37.1613 24.7742H41.2903V52.6452H37.1613V24.7742ZM57.8064 13.4194H61.9355V52.6452H57.8064V13.4194ZM15.4839 14.4516C15.4839 16.1588 16.8735 17.5484 18.5806 17.5484C20.2878 17.5484 21.6774 16.1588 21.6774 14.4516C21.6774 13.9229 21.5318 13.433 21.2974 12.997L27.7036 5.95111C28.0731 6.10685 28.4778 6.19355 28.9032 6.19355C29.1996 6.19355 29.4803 6.13861 29.753 6.06048L36.6925 15.7772C36.3397 16.2797 36.129 16.8886 36.129 17.5484C36.129 19.2555 37.5186 20.6452 39.2258 20.6452C40.933 20.6452 42.3226 19.2555 42.3226 17.5484C42.3226 17.374 42.2989 17.2046 42.2712 17.0373L46.4773 14.6996C47.0237 15.1815 47.7329 15.4839 48.5161 15.4839C50.2233 15.4839 51.6129 14.0943 51.6129 12.3871C51.6129 12.1477 51.5796 11.9173 51.5282 11.6946L57.9748 7.59224C58.5 8.00302 59.1537 8.25806 59.871 8.25806C61.5781 8.25806 62.9677 6.86845 62.9677 5.16129C62.9677 3.45413 61.5781 2.06452 59.871 2.06452C58.1638 2.06452 56.7742 3.45413 56.7742 5.16129C56.7742 5.40071 56.8075 5.63105 56.8589 5.85383L50.4123 9.95615C49.8871 9.54536 49.2334 9.29032 48.5161 9.29032C46.809 9.29032 45.4194 10.6799 45.4194 12.3871C45.4194 12.5615 45.443 12.7308 45.4708 12.8982L41.2646 15.2359C40.7182 14.754 40.0091 14.4516 39.2258 14.4516C38.9294 14.4516 38.6487 14.5066 38.376 14.5847L31.4365 4.86794C31.7893 4.36542 32 3.75655 32 3.09677C32 1.38962 30.6104 0 28.9032 0C27.1961 0 25.8064 1.38962 25.8064 3.09677C25.8064 3.6255 25.9521 4.11542 26.1865 4.55141L19.7802 11.5973C19.4108 11.4415 19.006 11.3548 18.5806 11.3548C16.8735 11.3548 15.4839 12.7445 15.4839 14.4516ZM59.871 4.12903C60.4405 4.12903 60.9032 4.59274 60.9032 5.16129C60.9032 5.72984 60.4405 6.19355 59.871 6.19355C59.3014 6.19355 58.8387 5.72984 58.8387 5.16129C58.8387 4.59274 59.3014 4.12903 59.871 4.12903ZM48.5161 11.3548C49.0857 11.3548 49.5484 11.8185 49.5484 12.3871C49.5484 12.9556 49.0857 13.4194 48.5161 13.4194C47.9466 13.4194 47.4839 12.9556 47.4839 12.3871C47.4839 11.8185 47.9466 11.3548 48.5161 11.3548ZM40.2581 17.5484C40.2581 18.1169 39.7954 18.5806 39.2258 18.5806C38.6562 18.5806 38.1935 18.1169 38.1935 17.5484C38.1935 16.9798 38.6562 16.5161 39.2258 16.5161C39.7954 16.5161 40.2581 16.9798 40.2581 17.5484ZM28.9032 2.06452C29.4728 2.06452 29.9355 2.52823 29.9355 3.09677C29.9355 3.66532 29.4728 4.12903 28.9032 4.12903C28.3337 4.12903 27.871 3.66532 27.871 3.09677C27.871 2.52823 28.3337 2.06452 28.9032 2.06452ZM18.5806 13.4194C19.1502 13.4194 19.6129 13.8831 19.6129 14.4516C19.6129 15.0202 19.1502 15.4839 18.5806 15.4839C18.0111 15.4839 17.5484 15.0202 17.5484 14.4516C17.5484 13.8831 18.0111 13.4194 18.5806 13.4194ZM2.06452 2.06452H0V0H2.06452V2.06452ZM2.06452 6.19355H0V4.12903H2.06452V6.19355ZM2.06452 10.3226H0V8.25806H2.06452V10.3226ZM2.06452 14.4516H0V12.3871H2.06452V14.4516ZM2.06452 18.5806H0V16.5161H2.06452V18.5806ZM6.19355 2.06452H4.12903V0H6.19355V2.06452ZM6.19355 6.19355H4.12903V4.12903H6.19355V6.19355ZM6.19355 10.3226H4.12903V8.25806H6.19355V10.3226ZM10.3226 2.06452H8.25806V0H10.3226V2.06452ZM14.4516 2.06452H12.3871V0H14.4516V2.06452ZM18.5806 2.06452H16.5161V0H18.5806V2.06452ZM10.3226 6.19355H8.25806V4.12903H10.3226V6.19355ZM12.3871 4.12903H14.4516V6.19355H12.3871V4.12903ZM8.25806 8.25806H10.3226V10.3226H8.25806V8.25806ZM6.19355 14.4516H4.12903V12.3871H6.19355V14.4516ZM4.12903 16.5161H6.19355V18.5806H4.12903V16.5161ZM2.06452 22.7097H0V20.6452H2.06452V22.7097ZM2.06452 26.8387H0V24.7742H2.06452V26.8387Z" fill="url(#paint0_linear)"/>
<defs>
<linearGradient id="paint0_linear" x1="32" y1="64" x2="32" y2="0" gradientUnits="userSpaceOnUse">
<stop stop-color="#7F85A8"/>
<stop offset="1" stop-color="#6B6B8B"/>
</linearGradient>
</defs>
</svg>

<svg xmlns="http://www.w3.org/2000/svg" width="64" height="64" fill="none"><path fill="url(#paint0_linear)" d="M15.48 42.32h-1.03v-2.06H12.4v2.06h-3.1v14.45h3.1v2.07h2.06v-2.07h1.03a4.13 4.13 0 002.73-7.22 4.12 4.12 0 00-2.73-7.23zm0 12.39h-4.13v-4.13h4.13a2.07 2.07 0 010 4.13zm0-6.2h-4.13V44.4h4.13a2.07 2.07 0 010 4.13zM5.05 57.6a12.37 12.37 0 013.57-18.99l1.01-.48a12.37 12.37 0 0112.87 2.02l1.35-1.57c-.37-.31-.75-.6-1.14-.87v-8.8h-8.26v6.22c-1.92-.01-3.85.35-5.67 1.12l-1.08.52a14.43 14.43 0 00-4.22 22.18l1.57-1.35zm15.6-26.63v5.55c-1.31-.62-2.7-1.03-4.13-1.24v-4.31h4.13zm35.1 21.68h-2.07V18.58h-8.26v34.07h-2.07V22.7H35.1v29.94h-2.07V12.39h-8.26v24.77h2.07v-22.7h4.13v38.19h-2.4a14.45 14.45 0 00-3.14-12.5l-1.58 1.35A12.37 12.37 0 016.4 58.95l-1.35 1.57a14.45 14.45 0 009.4 3.48c6.15 0 11.4-3.87 13.48-9.29H64V11.35h-8.26v41.3zm-8.27-32h4.13v32h-4.13v-32zm-10.32 4.12h4.13v27.88h-4.13V24.77zm20.65-11.35h4.13v39.23H57.8V13.42zm-42.33 1.03a3.1 3.1 0 006.2 0c0-.53-.15-1.02-.38-1.45l6.4-7.05a3.08 3.08 0 002.05.11l6.94 9.72a3.1 3.1 0 105.63 1.77c0-.18-.02-.35-.05-.51l4.2-2.34a3.07 3.07 0 005.06-3l6.44-4.1a3.1 3.1 0 10-1.12-1.74l-6.44 4.1a3.07 3.07 0 00-1.9-.67 3.1 3.1 0 00-3.04 3.6l-4.2 2.35a3.07 3.07 0 00-2.04-.79c-.3 0-.58.06-.85.13l-6.94-9.71A3.1 3.1 0 1025.8 3.1c0 .53.14 1.02.38 1.45l-6.41 7.05a3.1 3.1 0 00-4.3 2.85zm44.4-10.32a1.03 1.03 0 11-.01 2.07 1.03 1.03 0 010-2.07zm-11.36 7.22a1.03 1.03 0 110 2.07 1.03 1.03 0 010-2.07zm-8.26 6.2a1.03 1.03 0 11-2.07 0 1.03 1.03 0 012.07 0zM28.9 2.06a1.03 1.03 0 110 2.07 1.03 1.03 0 010-2.07zM18.58 13.42a1.03 1.03 0 110 2.07 1.03 1.03 0 010-2.07zM2.06 2.06H0V0h2.06v2.06zm0 4.13H0V4.13h2.06v2.06zm0 4.13H0V8.26h2.06v2.06zm0 4.13H0V12.4h2.06v2.06zm0 4.13H0v-2.06h2.06v2.06zM6.2 2.06H4.13V0h2.06v2.06zm0 4.13H4.13V4.13h2.06v2.06zm0 4.13H4.13V8.26h2.06v2.06zm4.13-8.26H8.26V0h2.06v2.06zm4.13 0H12.4V0h2.06v2.06zm4.13 0h-2.06V0h2.06v2.06zM10.32 6.2H8.26V4.13h2.06v2.06zm2.07-2.06h2.06v2.06H12.4V4.13zM8.26 8.26h2.06v2.06H8.26V8.26zm-2.07 6.2H4.13v-2.07h2.06v2.06zm-2.06 2.06h2.06v2.06H4.13v-2.06zM2.06 22.7H0v-2.06h2.06v2.06zm0 4.13H0v-2.07h2.06v2.07z"/><defs><linearGradient id="paint0_linear" x1="32" x2="32" y1="64" y2="0" gradientUnits="userSpaceOnUse"><stop stop-color="#7F85A8"/><stop offset="1" stop-color="#6B6B8B"/></linearGradient></defs></svg>
